X:1
T:la Suave Melodia
T:Andrea Falconiero
T:Su Corrente
C:Andrea Falconiero
%%score [ 1 2 ]
L:1/8
M:4/4
K:C
V:1 treble nm="Canto"
V:2 bass nm="Basso Continuo"
V:1
 B2 z E ^F>G A>B | G2 z G A>B c2 | B2 z B d3 A | cB B4 E^F | ^D2 z ^F G2 z G | G^FAG F2 F>G | %6
 E4 E2 :: z e | d2 B>d ^c2 c>d | B2 z A B2 z ^F | G2 ^FE E2 E>F | D2 z ^f e2 e>f | d2 dd d2 eB | %13
 c2 cc c2 dA | B2 BB B2 AB | G2 AG ^F2 GA | E4 E2 :|[M:3/2][K:treble][Q:1/2=160] B4 z4 E4 | %18
 ^F4 G6 A2 | G4 z4 G4 | A2 G2 A2 B2 c4 | B4 z4 B4 | d4 z4 A4 | c4 B8- | B4 E4 ^F4 | ^D4 z4 ^F4 | %26
 G4 z4 G4 | G4 A4 G4 | ^F4 F6 G2 | E8 E4 | E8 :: e4 | d4 B6 d2 | ^c4 c6 d2 | B4 z4 A4 | B4 z4 ^F4 | %36
 G4 ^F4 E4 | ^F4 E6 F2 | D4 z4 ^f4 | e4 e6 ^f2 | d4 d4 d4 | d4 e6 B2 | c4 c4 c4 | c4 d6 A2 | %44
 B4 B4 B4 | B4 A6 B2 | G4 A4 G4 | ^F4 F6 G2 | E8 E4 | E8 :| %50
V:2
 E,3 E, ^D,2 D,2 | E,2 B,,2 C,2 D,2 | G,,2 G,2 ^F,3 F, | E,2 D,2 C,4 | B,,2 B,2 E,4 | %5
 B,,2 C,2 A,,2 B,,2 | E,4 E,2 :: E,2 | B,2 B,2 ^A,3 A, | B,2 ^F,2 G,2 D,2 | E,2 ^F,G, A,2 A,,2 | %11
 D,2 D,2 A,4 | B,2 B,A, ^G,2 G,2 | A,2 A,G, ^F,2 F,2 | G,2 ^F,E, ^D,2 D,2 | E,2 A,,2 B,,4 | %16
 E,4 E,2 :|[M:3/2][K:bass] E,8 E,4 | ^D,8 D,4 | E,4 z4 B,,4 | C,8 D,4 | G,,4 z4 G,4 | %22
 ^F,6 F,2 E,4 | D,12 | C,4 C,8 | B,,4 z4 B,4 | E,4 z4 B,,4 | C,4 A,,8 | B,,4 B,,8 | E,4 E,8 | %30
 E,8 :: E,4 | B,8 B,4 | ^A,8 A,4 | B,4 z4 ^F,4 | G,4 z4 D,4 | E,4 ^F,4 G,4 | A,4 A,8 | D,4 z4 D,4 | %39
 A,4 A,8 | B,4 B,4 A,4 | ^G,4 G,8 | A,4 A,4 G,4 | ^F,4 F,8 | G,4 ^F,4 E,4 | ^D,4 D,8 | E,4 A,,8 | %47
 B,,4 B,,8 | E,8 E,4 | E,8 :| %50

